sprites/actors/ghost_clyde/clyde_left_alternate.svg

<?xml version="1.0" encoding="UTF-8" standalone="no"?>
<!-- Created with Inkscape (http://www.inkscape.org/) -->

<svg
   width="100"
   height="100"
   viewBox="0 0 100 100"
   version="1.1"
   id="svg5"
   inkscape:version="1.2 (dc2aeda, 2022-05-15)"
   sodipodi:docname="clyde_left_left.svg"
   xmlns:inkscape="http://www.inkscape.org/namespaces/inkscape"
   xmlns:sodipodi="http://sodipodi.sourceforge.net/DTD/sodipodi-0.dtd"
   xmlns="http://www.w3.org/2000/svg"
   xmlns:svg="http://www.w3.org/2000/svg">
  <sodipodi:namedview
     id="namedview7"
     pagecolor="#ffffff"
     bordercolor="#000000"
     borderopacity="0.25"
     inkscape:showpageshadow="2"
     inkscape:pageopacity="0.0"
     inkscape:pagecheckerboard="0"
     inkscape:deskcolor="#d1d1d1"
     inkscape:document-units="px"
     showgrid="true"
     inkscape:zoom="5.5731762"
     inkscape:cx="46.382887"
     inkscape:cy="55.354431"
     inkscape:window-width="1920"
     inkscape:window-height="1016"
     inkscape:window-x="0"
     inkscape:window-y="0"
     inkscape:window-maximized="1"
     inkscape:current-layer="layer1">
    <inkscape:grid
       type="xygrid"
       id="grid2865" />
  </sodipodi:namedview>
  <defs
     id="defs2">
    <inkscape:perspective
       sodipodi:type="inkscape:persp3d"
       inkscape:vp_x="0 : 50 : 1"
       inkscape:vp_y="0 : 1000 : 0"
       inkscape:vp_z="100 : 50 : 1"
       inkscape:persp3d-origin="50 : 33.333333 : 1"
       id="perspective5340" />
  </defs>
  <g
     inkscape:label="Layer 1"
     inkscape:groupmode="layer"
     id="layer1">
    <path
       id="path13817"
       style="fill:#f16c00;fill-opacity:1;stroke-width:10"
       d="m 88.15059,38.241912 c 1.767402,5.650724 1.513313,11.354806 1.515831,16.912134 0.0069,15.133555 2.336145,24.776064 -0.602871,33.38026 -0.492324,1.441316 -2.64792,5.303295 -4.569311,1.003078 -2.352881,-5.265926 -0.08401,-15.51762 -3.621011,-16.503967 -2.973034,-0.829075 -5.928003,0.28998 -6.397845,2.759166 -1.023113,5.376824 2.008087,11.760292 0.13668,14.567718 -1.957218,2.936158 -5.576362,1.944692 -7.489711,0.266384 -2.506845,-2.198897 -1.564508,-12.888932 -2.904776,-17.233546 -1.124196,-3.644195 -9.900644,-4.662378 -11.482905,-1.691211 -0.47283,0.887879 2.393135,13.549367 -0.231122,17.010287 -2.118493,2.793911 -8.213164,3.809647 -9.870988,0.764622 C 40.185433,84.98205 40.975527,73.37009 38.633077,72.482073 35.499407,71.294107 34.018466,66.350481 27.364221,69.942927 24.380275,71.553878 25.626902,86.124249 23.801377,88.675459 22.940464,89.878603 13.050904,91.689587 10.989239,85.927659 9.9983419,83.158306 10.528036,56.442006 10.279775,53.627516 8.6674062,35.348351 19.89767,17.771464 38.127833,12.0641 46.669214,9.3900281 55.434158,9.7326425 63.274037,12.49111 74.743495,16.526648 84.233072,25.732745 88.146273,38.228118 L 50.05386,50.157593 Z"
       sodipodi:nodetypes="cssssssssssssssssssccc" />
    <path
       style="fill:#ffffff;fill-opacity:1;stroke-width:10"
       id="path14682-2-3"
       sodipodi:type="arc"
       sodipodi:cx="28.700533"
       sodipodi:cy="38.220181"
       sodipodi:rx="10.931968"
       sodipodi:ry="10.931968"
       sodipodi:start="5.9800505"
       sodipodi:end="5.9796884"
       sodipodi:arc-type="slice"
       d="M 39.134062,34.95684 A 10.931968,10.931968 0 0 1 31.964818,48.653414 10.931968,10.931968 0 0 1 18.267595,41.48541 10.931968,10.931968 0 0 1 25.434359,27.787538 10.931968,10.931968 0 0 1 39.13288,34.953062 l -10.432347,3.267119 z" />
    <path
       style="fill:#0000ff;fill-opacity:1;stroke-width:10"
       id="path14684-0-1"
       sodipodi:type="arc"
       sodipodi:cx="26.355665"
       sodipodi:cy="39.993118"
       sodipodi:rx="7.4334154"
       sodipodi:ry="7.4334154"
       sodipodi:start="5.9800505"
       sodipodi:end="5.9796884"
       sodipodi:arc-type="slice"
       d="m 33.450157,37.774143 a 7.4334154,7.4334154 0 0 1 -4.874874,9.313266 7.4334154,7.4334154 0 0 1 -9.313708,-4.874031 7.4334154,7.4334154 0 0 1 4.873188,-9.314149 7.4334154,7.4334154 0 0 1 9.31459,4.872345 l -7.093688,2.221544 z" />
    <path
       style="fill:#ffffff;fill-opacity:1;stroke-width:10"
       id="path14682-2-3-9"
       sodipodi:type="arc"
       sodipodi:cx="56.071457"
       sodipodi:cy="38.292374"
       sodipodi:rx="10.931968"
       sodipodi:ry="10.931968"
       sodipodi:start="5.9800505"
       sodipodi:end="5.9796884"
       sodipodi:arc-type="slice"
       d="M 66.504986,35.029033 A 10.931968,10.931968 0 0 1 59.335742,48.725607 10.931968,10.931968 0 0 1 45.638519,41.557603 10.931968,10.931968 0 0 1 52.805283,27.859731 10.931968,10.931968 0 0 1 66.503804,35.025255 L 56.071457,38.292374 Z" />
    <path
       style="fill:#0000ff;fill-opacity:1;stroke-width:10"
       id="path14684-0-1-4"
       sodipodi:type="arc"
       sodipodi:cx="53.726589"
       sodipodi:cy="40.065311"
       sodipodi:rx="7.4334154"
       sodipodi:ry="7.4334154"
       sodipodi:start="5.9800505"
       sodipodi:end="5.9796884"
       sodipodi:arc-type="slice"
       d="m 60.821081,37.846336 a 7.4334154,7.4334154 0 0 1 -4.874874,9.313266 7.4334154,7.4334154 0 0 1 -9.313708,-4.874031 7.4334154,7.4334154 0 0 1 4.873188,-9.314148 7.4334154,7.4334154 0 0 1 9.31459,4.872344 l -7.093688,2.221544 z" />
  </g>
</svg>

<svg width="100" height="100" xmlns="http://www.w3.org/2000/svg"><path d="M88.15 38.242c1.768 5.65 1.514 11.355 1.516 16.912.007 15.134 2.337 24.776-.602 33.38-.493 1.442-2.648 5.304-4.57 1.003-2.353-5.266-.084-15.517-3.62-16.504-2.974-.829-5.929.29-6.399 2.76-1.023 5.376 2.008 11.76.137 14.567-1.957 2.936-5.576 1.945-7.49.267-2.506-2.2-1.564-12.89-2.904-17.234-1.125-3.644-9.901-4.662-11.483-1.691-.473.888 2.393 13.55-.231 17.01-2.119 2.794-8.214 3.81-9.871.765-2.448-4.495-1.657-16.107-4-16.995-3.134-1.188-4.615-6.132-11.269-2.54-2.984 1.612-1.737 16.182-3.563 18.733-.86 1.204-10.75 3.015-12.812-2.747-.99-2.77-.461-29.486-.71-32.3-1.612-18.28 9.619-35.857 27.849-41.564a39.74 39.74 0 0 1 25.146.427c11.47 4.036 20.96 13.242 24.872 25.737l-38.092 11.93z" fill="#f16c00"/><path d="M39.134 34.957a10.932 10.932 0 0 1-7.17 13.696 10.932 10.932 0 0 1-13.696-7.168 10.932 10.932 0 0 1 7.166-13.697 10.932 10.932 0 0 1 13.699 7.165L28.7 38.22z" fill="#fff"/><path d="M33.45 37.774a7.433 7.433 0 0 1-4.875 9.313 7.433 7.433 0 0 1-9.313-4.874 7.433 7.433 0 0 1 4.873-9.314 7.433 7.433 0 0 1 9.314 4.873l-7.093 2.221z" fill="#00f"/><path d="M66.505 35.029a10.932 10.932 0 0 1-7.17 13.697 10.932 10.932 0 0 1-13.696-7.168 10.932 10.932 0 0 1 7.166-13.698 10.932 10.932 0 0 1 13.699 7.165L56.07 38.292z" fill="#fff"/><path d="M60.821 37.846a7.433 7.433 0 0 1-4.875 9.314 7.433 7.433 0 0 1-9.314-4.874 7.433 7.433 0 0 1 4.874-9.315 7.433 7.433 0 0 1 9.314 4.873l-7.093 2.221z" fill="#00f"/></svg>
